Obsidian-SemiLight/actions/22s/kstars_clines.svg

<svg viewBox="0 0 22 22" xmlns="http://www.w3.org/2000/svg"><path d="m16.279297 3-4.357422 7.359375-3.4648438 1.847656-2.9960937 1.1875-2.4609375 5.220703.8183594.384766 2.3085937-4.896484 2.7109375-1.074219 3.2949214-1.755859 2.855469 2.152343 4.011719-5.4023435zm-.035156 1.8378906 1.683593 3.109375-3.123046 4.2050784-2-1.507813z" fill="#4d4d4d"/></svg>

<svg xmlns="http://www.w3.org/2000/svg" viewBox="0 0 22 22">
  <defs id="defs3051">
    <style type="text/css" id="current-color-scheme">
      .ColorScheme-Text {
        color:#4d4d4d;
      }
      </style>
  </defs>
 <path 
     style="fill:currentColor;fill-opacity:1;stroke:none" 
     d="M 16.279297 3 L 11.921875 10.359375 L 8.4570312 12.207031 L 5.4609375 13.394531 L 3 18.615234 L 3.8183594 19 L 6.1269531 14.103516 L 8.8378906 13.029297 L 12.132812 11.273438 L 14.988281 13.425781 L 19 8.0234375 L 16.279297 3 z M 16.244141 4.8378906 L 17.927734 7.9472656 L 14.804688 12.152344 L 12.804688 10.644531 L 16.244141 4.8378906 z "
     class="ColorScheme-Text"
     />
</svg>
